X:1
T:Puerto Vallarta, 87.87 D
T:Puerto Vallarta, 87.87 D
T:Annie Fortescue Harrison (ca 1850-1944) 
T:Public Domain Courtesy of the Cyber Hymnal™
C:Annie Fortescue Harrison (ca 1850-1944)
Z:Public Domain
Z:Courtesy of the Cyber Hymnal™
%%score ( 1 2 ) ( 3 4 )
L:1/8
Q:1/4=108
M:4/4
K:F
V:1 treble 
V:2 treble 
V:3 bass 
V:4 bass 
V:1
 [Fc]3 [Fd] [Fc]2 [FA]2 | [Ec]3 [GB] [GB]2 [FA]2 | [DG]2 D2 [CF]2 [CA]2 | [Ec]3 [EB] [FA]4 | %4
 [Fc]3 [Fd] [Fc]2 [FA]2 | [Ec]3 [GB] [GB]2 [FA]2 | [DG]2 D2 [CF]2 [CE]2 | [EA]3 [EG] [CF]4 | %8
 [_EF]3 [EG] [DG]2 [DF]2 | [_EF]2 (GA) [DG]2 [DF]2 | [DG]3 [DG] [CA]2 [Fc]2 | [Fd]2 [Fc]2 [EG]4 | %12
 [Fc]3 [Fd] [Fc]2 [FA]2 | [Ec]3 [GB] [GB]2 [FA]2 | [DG]2 D2 [CF]2 [CE]2 | [EA]3 [EG] [CF]4 |] %16
V:2
 x8 | x8 | x2 D2 x4 | x8 | x8 | x8 | x2 D2 x4 | x8 | x8 | x2 _E2 x4 | x8 | x8 | x8 | x8 | %14
 x2 D2 x4 | x8 |] %16
V:3
 [F,A,]3 [F,B,] [F,A,]2 F,2 | [C,G,]3 [C,C] [F,C]2 [F,C]2 | [B,,B,]2 [B,,B,]2 [C,A,]2 [C,F,]2 | %3
 [C,G,]3 [C,C] [F,C]4 | [F,A,]3 [F,B,] [F,A,]2 F,2 | [C,G,]3 [C,C] [F,C]2 [F,C]2 | %6
 [B,,B,]2 [B,,B,]2 [C,A,]2 [C,G,]2 | [C,C]3 [C,B,] [F,A,]4 | [F,A,]3 [F,A,] [F,B,]2 [F,B,]2 | %9
 [F,A,]2 [F,A,]2 [B,,B,]2 [B,,B,]2 | [=B,,G,]3 [B,,G,] [C,F,]2 [C,A,]2 | [C,B,]2 [C,A,]2 [C,C]4 | %12
 [F,A,]3 [F,B,] [F,A,]2 F,2 | [C,G,]3 [C,C] [F,C]2 [F,C]2 | [B,,B,]2 [B,,B,]2 [C,A,]2 [C,G,]2 | %15
 [C,C]3 [C,B,] [F,A,]4 |] %16
V:4
 x6 F,2 | x8 | x8 | x8 | x6 F,2 | x8 | x8 | x8 | x8 | x8 | x8 | x8 | x6 F,2 | x8 | x8 | x8 |] %16

